src/icons/solid/symbols/servers.svg

<svg width="24" height="24" viewBox="0 0 24 24" fill="none" xmlns="http://www.w3.org/2000/svg">
<g clip-path="url(#clip0_4787_570)">
<path fill-rule="evenodd" clip-rule="evenodd" d="M22 9C22.5522 9 22.9999 9.44783 23 10V14C23 14.5523 22.5523 15 22 15H13V21H18C18.5522 21 18.9999 21.4478 19 22C19 22.5523 18.5523 23 18 23H6C5.44772 23 5 22.5523 5 22C5.00013 21.4478 5.4478 21 6 21H11V15H2C1.44772 15 1 14.5523 1 14V10C1.00013 9.44783 1.4478 9 2 9H22ZM5.49707 10.5C4.66872 10.5 3.9972 11.1717 3.99707 12C3.99707 12.8284 4.66864 13.5 5.49707 13.5C6.32527 13.4997 6.99707 12.8283 6.99707 12C6.99694 11.1718 6.32519 10.5003 5.49707 10.5ZM9.49512 10.5C8.66677 10.5 7.99525 11.1717 7.99512 12C7.99512 12.8284 8.66669 13.5 9.49512 13.5C10.3233 13.4997 10.9951 12.8283 10.9951 12C10.995 11.1718 10.3232 10.5003 9.49512 10.5Z" fill="#3C3B44"/>
<path fill-rule="evenodd" clip-rule="evenodd" d="M22 1C22.5523 1 23 1.44772 23 2V6.21387C22.9999 6.76604 22.5522 7.21387 22 7.21387H2C1.4478 7.21387 1.00013 6.76604 1 6.21387V2C1 1.44772 1.44772 1 2 1H22ZM5.49707 2.60742C4.66864 2.60742 3.99707 3.27899 3.99707 4.10742C3.99733 4.93562 4.66881 5.60742 5.49707 5.60742C6.32511 5.60716 6.99681 4.93546 6.99707 4.10742C6.99707 3.27916 6.32527 2.60769 5.49707 2.60742ZM9.49512 2.60742C8.66669 2.60742 7.99512 3.27899 7.99512 4.10742C7.99538 4.93562 8.66685 5.60742 9.49512 5.60742C10.3232 5.60716 10.9949 4.93546 10.9951 4.10742C10.9951 3.27916 10.3233 2.60769 9.49512 2.60742Z" fill="#3C3B44"/>
</g>
<defs>
<clipPath id="clip0_4787_570">
<rect width="24" height="24" fill="white"/>
</clipPath>
</defs>
</svg>

<svg xmlns="http://www.w3.org/2000/svg" width="24" height="24" fill="none" viewBox="0 0 24 24"><g fill="currentColor" fill-rule="evenodd" clip-path="url(#a)" clip-rule="evenodd"><path d="M22 9a1 1 0 0 1 1 1v4a1 1 0 0 1-1 1h-9v6h5a1 1 0 0 1 0 2H6a1 1 0 1 1 0-2h5v-6H2a1 1 0 0 1-1-1v-4a1 1 0 0 1 1-1zM5.497 10.5a1.5 1.5 0 1 0 0 3 1.5 1.5 0 0 0 0-3m3.998 0a1.5 1.5 0 1 0 0 3 1.5 1.5 0 0 0 0-3M22 1a1 1 0 0 1 1 1v4.214a1 1 0 0 1-1 1H2a1 1 0 0 1-1-1V2a1 1 0 0 1 1-1zM5.497 2.607a1.5 1.5 0 1 0 0 3 1.5 1.5 0 0 0 0-3m3.998 0a1.5 1.5 0 1 0 0 3 1.5 1.5 0 0 0 0-3"/></g><defs><clipPath id="a"><path fill="currentColor" d="M0 0h24v24H0z"/></clipPath></defs></svg>
